X:1
T:Title
%%score { 1 | 2 } 3
L:1/8
Q:1/4=80
M:4/4
K:Bb
V:1 treble nm="Grand Piano, Soprano"
V:2 treble 
V:3 bass nm="Choir Pad, Carol His Natal Day"
V:1
 F>E Fd c2 B2 | B>A AB c4 | A>G Fe d2 c2 | c>B Bc d4 | d>d ed c2 c2 | B>B cB A4 | G>G BG F2 B2 | %7
w: By~John~Henry~Kurzenknabe * * * * *|||||||
 c>B dc B4 | d>d dd f4 | B>B BB d4 | c>B AG F2 B2 | d>B cA B4- | B2 z2 z4 |] %13
w: ||||||
V:2
 D>C DF E2 D2 | F>F FF F4 | E>E EG F2 E2 | E>D DE F4 | F>F FF F2 E2 | D>G GG ^F4 | E>E GE D2 F2 | %7
 E>D FE D4 | F>F FF E4 | D>D GD ^F4 | G>G FE D2 F2 | F>D EE D4- | D2 z2 z4 |] %13
V:3
 [B,,B,]>[B,,B,] [B,,B,][B,,B,] [B,,B,]2 [B,,B,]2 | [F,D]>[F,C] [E,C][E,D] [F,E]4 | %2
 [F,C]>[F,C] [F,A,][F,C] [F,B,]2 [F,A,]2 | [B,,B,]>[B,,B,] [B,,B,][B,,B,] [B,,B,]4 | %4
 [B,,B,]>[B,,B,] [C,A,][D,B,] [F,A,]2 [F,A,]2 | [G,B,]>[G,D] [G,D][G,D] [D,D]4 | %6
 [E,B,]>[E,B,] [E,B,][E,B,] [B,,B,]2 [D,B,]2 | [F,A,]>[G,B,] [F,B,][F,A,] [B,,B,]4 | %8
 [B,,B,]>[B,,B,] [B,,B,][B,,B,] [F,A,]4 | [G,B,]>[G,B,] [G,D][G,B,] [D,A,]4 | %10
 [E,G,]>[E,B,] [E,B,][E,B,] [B,,B,]2 [D,B,]2 | [F,B,]>[F,B,] [F,A,][F,C] [B,,B,]4- | %12
 [B,,B,]2 z2 z4 |] %13

